X:83
T:Lady Mary Ramsey. RHu.083
S:R.Hughes MS,1823,Whitchurch,Shrops.
A:Whitchurch, Shropshire
Z:Neil Brookes 2006
M:4/4
L:1/8
Q:1/2=100
R:Reel
K:G
G3e dBBe|dBBe dBBg|G3e dBBe|dBgB A2A2::!
bggb affa|geeg dBB2|bggb affd|egdB A3z|!
bggb affa|gege dBB2|bgaf gefd|egdB A3B|]

